packages/icons/svg/Outline/fire.svg

<svg fill="none" height="24" viewBox="0 0 24 24" width="24" xmlns="http://www.w3.org/2000/svg"><path clip-rule="evenodd" d="m7.4951 9.51647c-2.032 2.19903-1.989 5.68503.129 7.84403 1.034 1.057 2.408 1.64 3.872 1.641h.005c1.467 0 2.846-.583 3.885-1.641 2.156-2.198 2.152-5.773-.009-7.96803l-2.986-3.051c-.302 2.482-1.233 4.66003-2.891 4.66003-.508 0-1.336-.226-2.005-1.48503zm4.006 11.48503h-.007c-2.00601-.002-3.88801-.797-5.29901-2.242-2.914-2.97-2.918-7.803-.009-10.76803l.983-.994c.254-.254.623-.352.972-.261.347.094.617.367.707.715.23.889.50399 1.326.65499 1.492.355-.374.99702-1.885.99702-4.442 0-.147 0-.286-.008-.425-.019-.295.094-.584.308-.788.397-.377 1.033-.377 1.414.015l4.59 4.689c2.92 2.96403 2.925 7.79703.01 10.76803-1.419 1.446-3.305 2.241-5.313 2.241z" fill="#6b7280" fill-rule="evenodd"/></svg>

<svg width="24" height="24" viewBox="0 0 24 24" fill="none" xmlns="http://www.w3.org/2000/svg">
<g id="Icon/Outline/fire">
<path id="Mask" fill-rule="evenodd" clip-rule="evenodd" d="M7.49509 9.5165C5.46309 11.7155 5.50609 15.2015 7.62409 17.3605C8.65809 18.4175 10.0321 19.0005 11.4961 19.0015H11.5011C12.9681 19.0015 14.3471 18.4185 15.3861 17.3605C17.5421 15.1625 17.5381 11.5875 15.3771 9.3925L12.3911 6.3415C12.0891 8.8235 11.1581 11.0015 9.50009 11.0015C8.99209 11.0015 8.16409 10.7755 7.49509 9.5165ZM11.5011 21.0015H11.4941C9.48809 20.9995 7.60609 20.2045 6.19509 18.7595C3.28109 15.7895 3.27709 10.9565 6.18609 7.9915L7.16909 6.9975C7.42309 6.7435 7.79209 6.6455 8.14109 6.7365C8.48809 6.8305 8.75809 7.1035 8.84809 7.4515C9.07809 8.3405 9.35209 8.7775 9.50309 8.9435C9.85809 8.5695 10.5001 7.0585 10.5001 4.5015C10.5001 4.3545 10.5001 4.2155 10.4921 4.0765C10.4731 3.7815 10.5861 3.4925 10.8001 3.2885C11.1971 2.9115 11.8331 2.9115 12.2141 3.3035L16.8041 7.9925C19.7241 10.9565 19.7291 15.7895 16.8141 18.7605C15.3951 20.2065 13.5091 21.0015 11.5011 21.0015Z" fill="#000000"/>
</g>
</svg>
